X:1
T:Kissin's No Sin
M:3/4
L:1/8
K:G
 D2| G4 G2| B A3 G2|B-d d4-| d4 ee| d2- B2 A2| G2- A2 B2| E6-| E4 D2|\
 G G3 G2| B2 A2 G2|B-d d4-| d4 e2| d2- B2 A2| G2- A2 F2| E6| E2| DDG G|\
 B2 G4| G2 G2 G/2 G G/2| EDD DG G| B2 G4| GG B2| AG| Bdd de e| d B- B4|\
 G2 G2 BG| EDD DG G| B2 G4| G2 A2 GD| EG z2||
